assets/img/logo/venezia.svg

<svg fill="none" height="26" viewBox="0 0 196 26" width="196" xmlns="http://www.w3.org/2000/svg"><g fill="#1d1e1c"><path d="m59.7847 24.5444h-19.1239c-4.4673 0-8.1027-3.6354-8.1027-8.1027 0-4.4684 3.6354-8.10381 8.1027-8.10381h19.1239c.9983 0 1.8085.81027 1.8085 1.80861 0 .9983-.8102 1.8085-1.8085 1.8085h-19.1239c-2.473 0-4.4856 2.0126-4.4856 4.4867 0 2.473 2.0126 4.4855 4.4856 4.4855h19.1239c.9983 0 1.8085.8091 1.8085 1.8086 0 .9983-.8102 1.8086-1.8085 1.8086z"/><path d="m58.4703 18.25h-24.1097c-.9995 0-1.8086-.8103-1.8086-1.8086s.8091-1.8086 1.8086-1.8086h24.1097c.9983 0 1.8085.8091 1.8085 1.8086 0 .9983-.8102 1.8086-1.8085 1.8086z"/><path d="m119.339 24.5444h-19.122c-4.4688 0-8.1042-3.6354-8.1042-8.1027 0-4.4684 3.6354-8.10381 8.1042-8.10381h19.122c.999 0 1.809.81027 1.809 1.80861 0 .9983-.81 1.8085-1.809 1.8085h-19.122c-2.4745 0-4.4871 2.0126-4.4871 4.4867 0 2.473 2.0126 4.4855 4.4871 4.4855h19.122c.999 0 1.809.8091 1.809 1.8086 0 .9983-.81 1.8086-1.809 1.8086z"/><path d="m118.037 18.25h-24.1097c-.9983 0-1.8085-.8103-1.8085-1.8086 0-.9995.8102-1.8086 1.8085-1.8086h24.1097c.998 0 1.809.8091 1.809 1.8086 0 .9983-.811 1.8086-1.809 1.8086z"/><path d="m88.8226 24.5444c-.2861 0-.571-.0684-.8319-.204l-21.6151-11.2173v9.6127c0 .9983-.8103 1.8086-1.8086 1.8086-.9995 0-1.8086-.8103-1.8086-1.8086v-12.5893c0-.63139.3294-1.21715.8696-1.54536.539-.32707 1.2114-.34986 1.7709-.05926l21.6151 11.21722v-9.6126c0-.99834.8103-1.80861 1.8086-1.80861s1.8085.81027 1.8085 1.80861v12.5893c0 .6313-.3293 1.2171-.8695 1.5453-.2883.1744-.6131.2633-.939.2633z"/><path d="m149.587 24.5444h-24.943c-.838 0-1.566-.5744-1.76-1.3904-.193-.8148.197-1.6558.945-2.033l18.161-9.166h-17.346c-.998 0-1.809-.8091-1.809-1.8085 0-.99834.811-1.80861 1.809-1.80861h24.943c.837 0 1.565.57551 1.759 1.39033.195.81478-.197 1.65588-.943 2.03308l-18.162 9.1659h17.346c.999 0 1.808.8103 1.808 1.8086s-.809 1.8086-1.808 1.8086z"/><path d="m154.622 24.5444c-.999 0-1.809-.8103-1.809-1.8086v-12.5893c0-.99834.81-1.80861 1.809-1.80861.998 0 1.809.81027 1.809 1.80861v12.5893c0 .9983-.811 1.8086-1.809 1.8086z"/><path d="m160.909 25.3182c-.565 0-1.135-.1846-1.611-.5653-1.115-.89-1.297-2.5162-.406-3.6319l16.105-20.149559c.489-.610834 1.226-.96753387 2.007-.97095272h.013c.776 0 1.513.34986172 2.003.95271872l16.4 20.150693c.901 1.1054.734 2.7339-.374 3.6342-1.106.9003-2.732.7339-3.633-.3726l-14.379-17.66635-14.105 17.64805c-.511.6394-1.262.971-2.02.971z"/><path d="m18.9843 25.3183c-.7784 0-1.5134-.3499-2.0046-.9527l-16.399079-20.15073c-.901436-1.10657-.735051-2.73394.372655-3.634236 1.106564-.900296 2.732794-.735052 3.634234.372654l14.37739 17.666312 14.105-17.648078c.8935-1.115684 2.5174-1.295743 3.6331-.405703 1.1134.891181 1.2958 2.516271.4046 3.631951l-16.1051 20.14953c-.4877.6108-1.2262.9675-2.0068.971z"/></g><path d="m172.4 17.6099h8.25v8.2485h-8.25z" fill="#bb7e67"/></svg>

<svg width="196" height="26" viewBox="0 0 196 26" fill="none" xmlns="http://www.w3.org/2000/svg">
<path d="M59.7847 24.5444H40.6608C36.1935 24.5444 32.5581 20.909 32.5581 16.4417C32.5581 11.9733 36.1935 8.33789 40.6608 8.33789H59.7847C60.783 8.33789 61.5932 9.14816 61.5932 10.1465C61.5932 11.1448 60.783 11.955 59.7847 11.955H40.6608C38.1878 11.955 36.1752 13.9676 36.1752 16.4417C36.1752 18.9147 38.1878 20.9272 40.6608 20.9272H59.7847C60.783 20.9272 61.5932 21.7363 61.5932 22.7358C61.5932 23.7341 60.783 24.5444 59.7847 24.5444Z" fill="#1D1E1C"/>
<path d="M58.4703 18.25H34.3606C33.3611 18.25 32.552 17.4397 32.552 16.4414C32.552 15.4431 33.3611 14.6328 34.3606 14.6328H58.4703C59.4686 14.6328 60.2788 15.4419 60.2788 16.4414C60.2788 17.4397 59.4686 18.25 58.4703 18.25Z" fill="#1D1E1C"/>
<path d="M119.339 24.5444H100.217C95.7482 24.5444 92.1128 20.909 92.1128 16.4417C92.1128 11.9733 95.7482 8.33789 100.217 8.33789H119.339C120.338 8.33789 121.148 9.14816 121.148 10.1465C121.148 11.1448 120.338 11.955 119.339 11.955H100.217C97.7425 11.955 95.7299 13.9676 95.7299 16.4417C95.7299 18.9147 97.7425 20.9272 100.217 20.9272H119.339C120.338 20.9272 121.148 21.7363 121.148 22.7358C121.148 23.7341 120.338 24.5444 119.339 24.5444Z" fill="#1D1E1C"/>
<path d="M118.037 18.25H93.9273C92.929 18.25 92.1188 17.4397 92.1188 16.4414C92.1188 15.4419 92.929 14.6328 93.9273 14.6328H118.037C119.035 14.6328 119.846 15.4419 119.846 16.4414C119.846 17.4397 119.035 18.25 118.037 18.25Z" fill="#1D1E1C"/>
<path d="M88.8226 24.5444C88.5365 24.5444 88.2516 24.476 87.9907 24.3404L66.3756 13.1231V22.7358C66.3756 23.7341 65.5653 24.5444 64.567 24.5444C63.5675 24.5444 62.7584 23.7341 62.7584 22.7358V10.1465C62.7584 9.51511 63.0878 8.92935 63.628 8.60114C64.167 8.27407 64.8394 8.25128 65.3989 8.54188L87.014 19.7591V10.1465C87.014 9.14816 87.8243 8.33789 88.8226 8.33789C89.8209 8.33789 90.6311 9.14816 90.6311 10.1465V22.7358C90.6311 23.3671 90.3018 23.9529 89.7616 24.2811C89.4733 24.4555 89.1485 24.5444 88.8226 24.5444Z" fill="#1D1E1C"/>
<path d="M149.587 24.5444H124.644C123.806 24.5444 123.078 23.97 122.884 23.154C122.691 22.3392 123.081 21.4982 123.829 21.121L141.99 11.955H124.644C123.646 11.955 122.835 11.1459 122.835 10.1465C122.835 9.14816 123.646 8.33789 124.644 8.33789H149.587C150.424 8.33789 151.152 8.9134 151.346 9.72822C151.541 10.543 151.149 11.3841 150.403 11.7613L132.241 20.9272H149.587C150.586 20.9272 151.395 21.7375 151.395 22.7358C151.395 23.7341 150.586 24.5444 149.587 24.5444Z" fill="#1D1E1C"/>
<path d="M154.622 24.5444C153.623 24.5444 152.813 23.7341 152.813 22.7358V10.1465C152.813 9.14816 153.623 8.33789 154.622 8.33789C155.62 8.33789 156.431 9.14816 156.431 10.1465V22.7358C156.431 23.7341 155.62 24.5444 154.622 24.5444Z" fill="#1D1E1C"/>
<path d="M160.909 25.3182C160.344 25.3182 159.774 25.1336 159.298 24.7529C158.183 23.8629 158.001 22.2367 158.892 21.121L174.997 0.971441C175.486 0.360607 176.223 0.00390713 177.004 0.000488281H177.017C177.793 0.000488281 178.53 0.35035 179.02 0.953207L195.42 21.1039C196.321 22.2093 196.154 23.8378 195.046 24.7381C193.94 25.6384 192.314 25.472 191.413 24.3655L177.034 6.69915L162.929 24.3472C162.418 24.9866 161.667 25.3182 160.909 25.3182Z" fill="#1D1E1C"/>
<path d="M18.9843 25.3183C18.2059 25.3183 17.4709 24.9684 16.9797 24.3656L0.580621 4.21487C-0.320815 3.1083 -0.15443 1.48093 0.953276 0.580634C2.05984 -0.319662 3.68607 -0.154418 4.58751 0.953288L18.9649 18.6196L33.0699 0.971522C33.9634 -0.144162 35.5873 -0.324221 36.703 0.565819C37.8164 1.457 37.9988 3.08209 37.1076 4.19777L21.0025 24.3473C20.5148 24.9581 19.7763 25.3148 18.9957 25.3183H18.9843Z" fill="#1D1E1C"/>
<path d="M172.4 17.6099H180.65V25.8584H172.4V17.6099Z" fill="#BB7E67"/>
</svg>
